assets/icons/mail/ok.svg

<?xml version="1.0" encoding="UTF-8" standalone="no"?>
<svg
   viewBox="0 0 24 24"
   height="24"
   width="24"
   version="1.1"
   id="svg4"
   sodipodi:docname="signed-ok.svg"
   inkscape:version="1.2 (1:1.2.1+202207142221+cd75a1ee6d)"
   xmlns:inkscape="http://www.inkscape.org/namespaces/inkscape"
   xmlns:sodipodi="http://sodipodi.sourceforge.net/DTD/sodipodi-0.dtd"
   xmlns="http://www.w3.org/2000/svg"
   xmlns:svg="http://www.w3.org/2000/svg">
  <defs
     id="defs8" />
  <sodipodi:namedview
     id="namedview6"
     pagecolor="#ffffff"
     bordercolor="#666666"
     borderopacity="1.0"
     inkscape:pageshadow="2"
     inkscape:pageopacity="0.0"
     inkscape:pagecheckerboard="0"
     showgrid="true"
     inkscape:snap-page="true"
     inkscape:zoom="28"
     inkscape:cx="15.321429"
     inkscape:cy="11.696429"
     inkscape:window-width="1920"
     inkscape:window-height="1016"
     inkscape:window-x="0"
     inkscape:window-y="0"
     inkscape:window-maximized="1"
     inkscape:current-layer="svg4"
     inkscape:showpageshadow="2"
     inkscape:deskcolor="#d1d1d1">
    <inkscape:grid
       type="xygrid"
       id="grid6" />
  </sodipodi:namedview>
  <path
     style="fill:#808080;stroke-width:1"
     d="m 5.0149997,6 -0.35625,0.5475 7.3412503,5.275001 7.34375,-5.295001 -0.35625,-0.5275 -6.9875,4.21625 z"
     id="path1048" />
  <path
     id="path864"
     style="color:#000000;fill:#808080;fill-opacity:1"
     d="m 4.7871094,3 c -0.676943,0.00559 -1.2506045,0.048153 -1.7597656,0.3027344 -0.3394412,0.1697204 -0.6300062,0.4624352 -0.796875,0.8378906 -0.1668695,0.3754554 -0.2304688,0.8177109 -0.2304688,1.359375 v 2.5 5 2.5 c 0,0.541663 0.063599,0.983919 0.2304688,1.359375 0.1668688,0.375456 0.4574338,0.66817 0.796875,0.837891 0.5091611,0.254582 1.0828226,0.297134 1.7597656,0.302734 0.2256474,0.0019 0.4628917,0 0.7128906,0 h 5.5 v -1 h -5.5 c -0.999995,0 -1.7062308,-0.03671 -2.0273438,-0.197266 -0.1605563,-0.08028 -0.244995,-0.162567 -0.328125,-0.349609 -0.08313,-0.187042 -0.1445312,-0.494793 -0.1445312,-0.953125 v -2.5 -5 -2.5 c 0,-0.4583309 0.061401,-0.7660834 0.1445312,-0.953125 0.08313,-0.1870416 0.1675687,-0.2693312 0.328125,-0.3496094 0.321113,-0.1605563 1.0273488,-0.1972656 2.0273438,-0.1972656 h 13 c 0.999995,0 1.70623,0.036708 2.027344,0.1972656 0.160557,0.080279 0.244995,0.1625678 0.328125,0.3496094 0.08313,0.1870416 0.144531,0.4947941 0.144531,0.953125 v 2.5 5 h 1 v -5 -2.5 c 0,-0.5416641 -0.0636,-0.9839196 -0.230469,-1.359375 -0.16687,-0.3754554 -0.457432,-0.6681702 -0.796875,-0.8378906 -0.678881,-0.3394412 -1.472661,-0.3027344 -2.472656,-0.3027344 h -13 c -0.2499989,0 -0.4872432,-0.00186 -0.7128906,0 z"
     sodipodi:nodetypes="csssccssscsccssssccssssssssccccsssssc" />
  <path
     style="color:#000000;fill:#808080;-inkscape-stroke:none"
     d="m 20.646484,14.646484 -4.646484,4.646485 -2.646484,-2.646485 -0.707032,0.707032 3.353516,3.353515 5.353516,-5.353515 z"
     id="path453" />
</svg>

<svg height="24" width="24" xmlns="http://www.w3.org/2000/svg"><path style="fill:gray;stroke-width:1" d="m5.015 6-.356.547L12 11.823l7.344-5.296L18.987 6 12 10.216z"/><path style="color:#000;fill:gray;fill-opacity:1" d="M4.787 3c-.677.006-1.25.048-1.76.303-.34.17-.63.462-.797.838C2.064 4.516 2 4.958 2 5.5v10c0 .542.064.984.23 1.36.167.375.458.668.797.837.51.255 1.083.297 1.76.303.226.002.463 0 .713 0H11v-1H5.5c-1 0-1.706-.037-2.027-.197a.615.615 0 0 1-.328-.35C3.06 16.266 3 15.958 3 15.5v-10c0-.458.061-.766.145-.953a.615.615 0 0 1 .328-.35C3.793 4.037 4.5 4 5.5 4h13c1 0 1.706.037 2.027.197.16.08.245.163.328.35.084.187.145.495.145.953V13h1V5.5c0-.542-.064-.984-.23-1.36a1.72 1.72 0 0 0-.797-.837C20.293 2.963 19.5 3 18.5 3h-13c-.25 0-.487-.002-.713 0z"/><path style="color:#000;fill:gray;-inkscape-stroke:none" d="M20.646 14.646 16 19.293l-2.646-2.647-.708.708L16 20.707l5.354-5.353z"/></svg>
